public/about-feature-02.svg

<svg width="100" height="101" viewBox="0 0 100 101" fill="none" xmlns="http://www.w3.org/2000/svg">
<g clip-path="url(#clip0_6511_2239)">
<g clip-path="url(#clip1_6511_2239)">
<mask id="mask0_6511_2239" style="mask-type:luminance" maskUnits="userSpaceOnUse" x="0" y="0" width="100" height="100">
<path d="M99.1112 0.189941H0.269531V99.0317H99.1112V0.189941Z" fill="white"/>
</mask>
<g mask="url(#mask0_6511_2239)">
<path d="M63.5703 47.3328L68.5703 39.4757L75.7132 35.9043C76.6656 35.6661 78.7132 35.3328 79.2846 35.9043C79.856 36.4757 88.0942 47.571 92.1417 53.0471L95.7132 59.4757C94.9989 60.9043 93.4275 63.9043 92.856 64.4757C92.2846 65.0471 86.9036 67.571 84.2846 68.7614C82.856 68.9996 79.856 69.4757 79.2846 69.4757C78.7132 69.4757 71.9036 60.4281 68.5703 55.9043L64.8203 49.4757L63.5703 47.3328Z" fill="#FDC040"/>
<path d="M79.2852 69.4757C78.7137 69.4757 71.9042 60.4281 68.5709 55.9043L64.8209 49.4757H62.1423H54.9994C54.2852 49.4757 50.7137 50.9043 49.2852 51.6186L44.9994 53.7614C43.5709 54.4757 42.1423 55.9043 41.428 56.6186C40.7137 57.3329 39.2852 59.4757 39.2852 60.19C39.2852 60.9043 39.2852 62.3329 39.9994 63.0471C40.7137 63.7614 42.1423 64.4757 42.8566 64.4757H47.1423C48.2852 64.4757 51.428 63.0471 52.8566 62.3329C53.3327 62.571 54.428 63.19 54.9994 63.7614C55.5709 64.3329 60.4756 67.809 62.8566 69.4757L68.5709 75.19C69.5233 75.6661 71.5709 76.4757 72.1423 75.9043C72.7137 75.3329 74.7613 73.7614 75.7137 73.0471L77.8566 71.6186L79.2852 69.4757Z" fill="#FDC040"/>
<path d="M22.1406 77.3328C22.1406 78.4757 24.0453 80.6661 24.9978 81.6185L29.9978 85.9042L32.8549 88.0471L35.7121 90.9042C36.6645 91.3804 38.5692 92.4757 38.5692 93.0471C38.5692 93.6185 41.4263 94.2375 42.8549 94.4757C43.5692 93.9995 45.1406 92.9042 45.7121 92.3328C46.4263 91.6185 46.4263 91.6185 46.4263 90.1899C46.4263 88.7614 46.4263 87.3328 45.7121 85.9042C44.9978 84.4757 44.9978 81.6185 44.2835 80.9042C43.5692 80.1899 40.7121 78.7614 40.7121 78.0471C40.7121 77.3328 38.5692 74.4757 37.8549 73.7614C37.1406 73.0471 35.7121 70.1899 34.9978 69.4757C34.2835 68.7614 32.1406 67.3328 30.7121 68.0471C29.2835 68.7614 24.9978 72.3328 24.2835 73.0471C23.7121 73.6185 22.6168 76.1424 22.1406 77.3328Z" fill="#FDC040"/>
<path d="M35.7137 7.33276C39.9994 13.2851 52.2852 24.9042 67.1423 23.7613L64.2852 32.3328L59.9994 35.9042L46.428 40.1899L35.7137 36.6185L29.2852 25.1899L29.9994 15.9042L33.5709 9.47562L35.7137 7.33276Z" fill="#FDC040"/>
<path d="M48.0896 25.8682C47.3355 25.8682 46.4108 25.7579 45.7776 25.0524C45.5575 24.8045 45.3646 24.5729 45.1776 24.3799C43.6693 22.7926 41.0712 24.9974 42.6455 27.0584L43.0253 27.5488C43.2729 27.8578 43.7189 28.2158 44.3573 28.6238C44.9795 29.0202 45.6729 29.3069 46.4436 29.4778V32.2006C46.4436 33.1375 47.2085 33.9091 48.1446 33.9091C49.0859 33.9091 49.8839 33.1375 49.8839 32.2006V29.4614C51.1171 29.1751 52.1739 28.5741 53.0381 27.6649C53.9075 26.7552 54.3425 25.5485 54.3425 24.0438C54.3425 23.0188 54.1446 22.1646 53.7481 21.4755C53.3518 20.7921 52.8673 20.3128 52.2893 20.0425C51.7059 19.7724 51.0729 19.5354 50.3738 19.3316C49.6803 19.1278 49.0473 18.9844 48.4638 18.8964C47.8859 18.8134 47.4015 18.6369 47.0051 18.3782C46.6086 18.1134 46.4106 17.7718 46.4106 17.3474C46.4106 15.3194 49.3831 15.5672 50.6929 16.6695C52.6251 18.2954 54.7882 15.3194 52.5479 13.6384L52.2892 13.4068C52.1129 13.2693 51.8048 13.0983 51.3589 12.8832C50.9185 12.6685 50.4229 12.5085 49.8838 12.3927V10.745V10.0286C49.8838 9.0915 49.1185 8.32007 48.1773 8.32007C47.2415 8.32007 46.4711 9.09131 46.4711 10.0286V12.3652C45.2158 12.6133 44.1755 13.2363 43.4546 14.1564C42.7281 15.0935 42.3592 16.1298 42.3592 17.2866C42.3592 18.4498 42.6292 19.4032 43.1683 20.1584C43.7078 20.9129 44.3629 21.4422 45.1391 21.7509C45.9096 22.0596 46.6801 22.3078 47.4508 22.4894C48.2268 22.6771 48.8821 22.8806 49.4212 23.1178C49.9608 23.3492 50.2305 23.6745 50.2305 24.0988C50.2306 25.2782 49.5152 25.8682 48.0896 25.8682Z" fill="#3BB77E"/>
<path d="M97.0689 55.952L81.2063 35.6339C80.1379 34.2618 78.5179 33.4746 76.7622 33.4746C75.5229 33.4746 74.3498 33.868 73.3652 34.615L62.9841 42.5285C61.7958 43.434 61.0366 44.7483 60.8463 46.229C60.8179 46.4498 60.8045 46.6698 60.8022 46.8888C56.8446 46.5889 52.7569 46.8903 48.7872 49.4706L48.6092 49.5862L38.5671 48.0505C38.5876 47.7028 38.5765 47.3509 38.5306 46.9978C38.3392 45.5206 37.5813 44.2093 36.3953 43.3052L26.0116 35.3989C23.5788 33.5385 20.0612 33.9905 18.1695 36.409L14.3881 41.2536C13.7263 42.101 13.8772 43.3245 14.7248 43.9859C15.5723 44.6476 16.7958 44.4966 17.4573 43.6492L21.2376 38.8063C21.8099 38.0746 22.9129 37.9306 23.6496 38.4942L34.0358 46.4022C34.3875 46.6703 34.6125 47.0596 34.6693 47.4986C34.7262 47.9382 34.6075 48.3733 34.3365 48.7213L18.4709 69.0428C17.9025 69.7728 16.7981 69.9153 16.0625 69.3576L5.68089 61.4433C5.32721 61.1739 5.10116 60.7832 5.04459 60.3436C4.98841 59.906 5.10714 59.4739 5.3803 59.1249L8.0776 55.6695C8.73919 54.8219 8.58841 53.5986 7.74073 52.9372C6.89324 52.2752 5.66989 52.4263 5.0081 53.2739L2.31236 56.7273C1.39401 57.9013 0.992853 59.3618 1.18281 60.8398C1.37297 62.3202 2.13243 63.6345 3.32046 64.5399L13.7054 72.4569C14.7161 73.2235 15.9105 73.5943 17.0971 73.5942C17.7833 73.5942 18.4662 73.468 19.1101 73.2249L20.4541 75.0656C19.7235 76.3982 19.6096 77.999 20.1968 79.5439C21.0359 81.7529 23.0161 83.2505 25.1583 83.3218C25.2248 83.6365 25.3168 83.9509 25.4425 84.2623C26.3061 86.4019 28.2778 87.8582 30.3965 87.954C30.4062 88.0096 30.4135 88.0653 30.4249 88.121C30.8281 90.08 32.3309 91.753 34.2535 92.3833C34.7432 92.5439 35.2371 92.6263 35.7261 92.6409C35.9133 93.4296 36.3048 94.1915 36.9066 94.8602C37.8446 95.9029 39.2141 96.57 40.7163 96.5697C41.8073 96.5697 42.9685 96.2158 44.0846 95.3999L46.2891 97.4606C47.4119 98.5085 48.8255 99.0316 50.2255 99.0316C51.6456 99.0315 53.0513 98.4932 54.1249 97.4186C54.7651 96.7779 55.2611 96.0156 55.5819 95.213C56.1289 95.3793 56.6633 95.458 57.1761 95.458C58.6199 95.4579 59.8941 94.8482 60.8069 93.9079C61.5539 93.1386 62.0886 92.1145 62.3251 91.0228C62.4041 91.0268 62.4831 91.03 62.5623 91.0308C62.5819 91.031 62.6009 91.031 62.6205 91.031C64.1561 91.031 65.6293 90.4362 66.6699 89.3942C67.3989 88.6645 67.9003 87.7662 68.1398 86.7855C68.5112 86.8579 68.8842 86.8958 69.2563 86.8958C69.7249 86.8958 70.1923 86.8376 70.6528 86.7196C72.5301 86.2386 73.9798 84.7713 74.4359 82.8905C74.8569 81.1549 74.4232 79.3266 73.2423 77.6648C76.2998 75.2049 77.5365 73.9932 78.9332 71.7275C79.8872 72.4293 81.0486 72.8159 82.2761 72.8159C83.5189 72.8159 84.6943 72.4196 85.6716 71.6723L96.0595 63.763C97.2445 62.8598 98.0025 61.5488 98.1941 60.0713C98.3855 58.5926 97.9866 57.1302 97.0689 55.952ZM26.1768 79.0289C25.8786 79.2983 25.5893 79.435 25.3171 79.435C24.7579 79.435 24.1078 78.8758 23.8363 78.1613C23.5899 77.5125 23.7048 76.9703 24.1789 76.5493L24.1852 76.5439L24.1911 76.5388L30.7498 70.709C31.2985 70.2223 31.8506 69.965 32.3469 69.965C33.0732 69.965 33.6162 70.5165 33.8133 71.0293C34.0242 71.5769 33.8973 72.0656 33.4386 72.4805L32.2953 73.5115L32.2923 73.5142C32.2866 73.519 32.2813 73.524 32.2756 73.529C32.2348 73.5662 32.1925 73.6043 32.1508 73.642L26.1768 79.0289ZM31.4782 83.682C31.1826 83.9432 30.9009 84.0698 30.6176 84.0698C30.0266 84.0698 29.3396 83.5145 29.0533 82.8049C28.7378 82.0235 29.1122 81.6626 29.2305 81.5483C29.3066 81.4755 29.3979 81.3879 29.4931 81.286L29.4948 81.2845L29.5149 81.2668C29.8893 80.9322 33.1872 77.9525 34.7629 76.5288L34.8803 76.4229C35.4143 75.9542 35.9552 75.7065 36.4453 75.7065C37.2183 75.7065 37.7938 76.298 38.0013 76.8475C38.2078 77.3938 38.0839 77.8719 37.6349 78.2673L37.2311 78.6225C37.2281 78.6252 37.2251 78.6273 37.2222 78.63L37.2193 78.6329L31.4782 83.682ZM37.2809 87.884C37.2541 87.9082 37.2288 87.9335 37.2028 87.958L36.7459 88.3702C36.3399 88.737 35.9333 88.837 35.4662 88.6838C34.8756 88.49 34.3599 87.9235 34.2391 87.3366C34.1339 86.8263 34.3382 86.3535 34.8568 85.8963L35.5063 85.3288C35.5228 85.3145 35.5369 85.2988 35.5528 85.284L39.8079 81.5419C40.8276 80.6405 41.8375 80.5502 42.5096 81.3016C42.6042 81.4075 43.4058 82.3603 42.4272 83.2443L39.8139 85.6025C39.7859 85.6272 39.7575 85.6493 39.7298 85.6746C39.7199 85.6838 39.7118 85.6942 39.7021 85.703L37.3108 87.8607C37.3012 87.869 37.2903 87.8755 37.2809 87.884ZM39.8013 92.2559C39.5962 92.0282 39.2003 91.4376 39.8496 90.814L42.4566 88.4618C42.6539 88.293 42.8441 88.1592 43.0221 88.0673C43.0301 88.063 43.0385 88.0588 43.0465 88.0546C44.0973 87.4933 44.6668 88.1476 44.8166 88.3613C45.0091 88.6362 45.2438 89.1762 44.6536 89.7063L42.8676 91.3118C42.8608 91.3178 42.8542 91.3239 42.8475 91.3299L42.0732 92.0258C40.8008 93.1679 40.0125 92.491 39.8013 92.2559ZM70.6519 81.9728C70.5322 82.4659 70.1803 82.8213 69.6863 82.948C68.8673 83.1576 67.8308 82.7029 66.8816 81.729C66.8105 81.6503 66.7375 81.5728 66.6612 81.4976L59.3126 74.2335C58.5476 73.4779 57.3151 73.4849 56.5593 74.2496C55.8035 75.0142 55.8105 76.2469 56.5751 77.0026L63.9119 84.2549C63.9242 84.2679 63.9366 84.2806 63.9486 84.2936C64.2418 84.595 64.4048 84.9978 64.4066 85.4338C64.4083 85.8942 64.2338 86.3235 63.9149 86.6427C63.6003 86.9579 63.1299 87.1376 62.6215 87.1376C62.6143 87.1376 62.6073 87.1376 62.6002 87.1373C62.1501 87.1332 61.7392 86.9823 61.4501 86.7192C61.3282 86.5618 61.1956 86.409 61.0498 86.2626L55.6775 80.8838C54.9176 80.1233 53.6849 80.1225 52.9242 80.882C52.1635 81.6418 52.1628 82.8743 52.9223 83.635L58.0172 88.7362C58.0786 88.826 58.1468 88.9126 58.2251 88.9936L58.4419 89.2172C58.7212 89.749 58.5481 90.645 58.0133 91.196C57.1882 92.0458 56.0269 91.2966 55.1996 90.5196L52.8989 88.3537C52.1161 87.6167 50.8838 87.654 50.1469 88.4368C49.4099 89.2198 49.4471 90.4519 50.2299 91.1889L51.9875 92.8432C51.9918 92.8472 51.9952 92.8516 51.9995 92.8555C52.0396 92.893 52.1001 92.9497 52.1031 93.146C52.1106 93.6023 51.8093 94.2279 51.3705 94.6672C50.7299 95.3082 49.6649 95.2853 48.9469 94.6152L47.0203 92.8145L47.2558 92.6026C49.1662 90.8872 49.4745 88.2249 48.0056 86.1279C47.5276 85.4455 46.9289 84.9153 46.2573 84.5475C47.2041 82.6805 46.9393 80.4136 45.4113 78.7058C44.5495 77.742 43.3319 77.0839 41.9728 76.9382C41.9339 76.4498 41.8271 75.9575 41.6438 75.4722C40.9825 73.7212 39.5123 72.4323 37.7822 71.986C37.8542 71.2103 37.7471 70.4096 37.4475 69.6306C36.6281 67.5019 34.5786 66.0713 32.3471 66.0713C30.8838 66.0713 29.4382 66.6678 28.1649 67.7972L23.1943 72.2153L22.1018 70.719L36.9215 51.7376L43.6971 52.7739L42.6721 53.4389C37.1816 57.001 36.7798 61.1438 38.2346 63.8332C39.3989 65.9859 41.7226 67.2163 44.1892 67.2163C45.2046 67.2162 46.2448 67.0076 47.2376 66.5689C47.2639 66.557 47.2899 66.545 47.3155 66.5323L52.4483 63.9873L55.4113 66.6853C55.4143 66.6879 55.4173 66.6899 55.4201 66.6925C55.4229 66.695 55.4253 66.6978 55.4282 66.7005L69.1236 78.8805C70.2971 79.9239 70.8685 81.0799 70.6519 81.9728ZM70.4882 74.8838L58.0242 63.7988L54.0859 60.213C53.4929 59.6728 52.6289 59.5516 51.9105 59.9082L45.6278 63.0235C43.9209 63.7576 42.2419 63.059 41.6589 61.9812C40.8578 60.5002 42.0578 58.4785 44.7909 56.7055L50.9078 52.7362C54.2243 50.5802 57.7035 50.4139 62.4628 50.9662L76.2436 68.6239C74.7893 71.2355 74.0171 72.0645 70.4882 74.8838ZM94.3326 59.5708C94.2759 60.0092 94.0508 60.3983 93.6998 60.6659L83.3095 68.5769C82.9363 68.8625 82.5418 68.9223 82.2765 68.9223C81.7303 68.9222 81.2289 68.6818 80.9023 68.264L65.0423 47.9425C64.7705 47.5948 64.6518 47.1626 64.7081 46.7252C64.7646 46.2855 64.9905 45.8945 65.3443 45.6249L75.7223 37.7138C76.0989 37.4283 76.4953 37.3683 76.7619 37.3683C77.3086 37.3683 77.8088 37.6079 78.1358 38.0278L93.9983 58.346C94.2709 58.6963 94.3898 59.131 94.3326 59.5708Z" fill="#3BB77E"/>
<path d="M38.2663 39.7388C41.3229 41.3881 44.7756 42.2598 48.2513 42.2598C59.8385 42.2598 69.2656 32.8222 69.2656 21.2219C69.2656 13.1259 64.539 5.65983 57.2258 2.20171C54.4085 0.866776 51.389 0.189941 48.2513 0.189941C36.6668 0.189941 27.2422 9.62488 27.2422 21.2219C27.2422 28.9568 31.4652 36.0514 38.2663 39.7388ZM48.2513 4.08338C50.8078 4.08338 53.2663 4.63416 55.5599 5.72064C61.5203 8.53898 65.3719 14.6238 65.3719 21.2219C65.3719 30.6755 57.6916 38.3664 48.2515 38.3664C45.419 38.3664 42.6058 37.6559 40.1189 36.3142C34.5779 33.3098 31.1358 27.5268 31.1358 21.2219C31.1358 11.7718 38.8136 4.08338 48.2513 4.08338Z" fill="#3BB77E"/>
<path d="M10.0177 49.9804C10.3762 50.2665 10.805 50.4055 11.2308 50.4055C11.8026 50.4055 12.3692 50.1547 12.7536 49.6728L12.7756 49.6452C13.4463 48.8049 13.3086 47.5799 12.4683 46.9094C11.6279 46.2391 10.4028 46.3761 9.73237 47.2168L9.71036 47.2445C9.0397 48.0848 9.17734 49.3097 10.0177 49.9804Z" fill="#3BB77E"/>
</g>
</g>
</g>
<defs>
<clipPath id="clip0_6511_2239">
<rect width="100" height="100" fill="white" transform="translate(0 0.189941)"/>
</clipPath>
<clipPath id="clip1_6511_2239">
<rect width="100" height="100" fill="white" transform="translate(0 0.189941)"/>
</clipPath>
</defs>
</svg>

<svg xmlns="http://www.w3.org/2000/svg" width="100" height="101" fill="none"><g clip-path="url(#a)"><g clip-path="url(#b)"><mask id="c" width="100" height="100" x="0" y="0" maskUnits="userSpaceOnUse" style="mask-type:luminance"><path fill="#fff" d="M99.111.19H.27v98.842H99.11z"/></mask><g mask="url(#c)"><path fill="#FDC040" d="m63.57 47.333 5-7.857 7.143-3.572c.953-.238 3-.571 3.572 0 .571.572 8.81 11.667 12.857 17.143l3.571 6.429c-.714 1.428-2.285 4.428-2.857 5-.571.571-5.952 3.095-8.571 4.285-1.429.239-4.429.715-5 .715-.572 0-7.381-9.048-10.715-13.572l-3.75-6.428z"/><path fill="#FDC040" d="M79.285 69.476c-.571 0-7.38-9.048-10.714-13.572l-3.75-6.428h-9.822c-.714 0-4.285 1.428-5.714 2.143L45 53.76c-1.428.715-2.857 2.143-3.571 2.858-.714.714-2.143 2.857-2.143 3.571s0 2.143.714 2.857c.715.714 2.143 1.429 2.858 1.429h4.285c1.143 0 4.286-1.429 5.715-2.143.476.238 1.571.857 2.142 1.428.572.572 5.477 4.048 7.858 5.715l5.714 5.714c.952.476 3 1.286 3.571.714.572-.571 2.62-2.143 3.572-2.857l2.143-1.428zM22.14 77.333c0 1.143 1.905 3.333 2.858 4.285l5 4.286 2.857 2.143 2.857 2.857c.952.476 2.857 1.572 2.857 2.143 0 .572 2.857 1.19 4.286 1.429.714-.477 2.286-1.572 2.857-2.143.714-.715.714-.715.714-2.143 0-1.429 0-2.857-.714-4.286s-.714-4.285-1.429-5c-.714-.714-3.57-2.143-3.57-2.857s-2.144-3.571-2.858-4.286-2.143-3.571-2.857-4.285c-.715-.715-2.857-2.143-4.286-1.429s-5.714 4.286-6.428 5c-.572.572-1.667 3.095-2.143 4.286M35.714 7.333c4.285 5.952 16.571 17.571 31.428 16.428l-2.857 8.572L60 35.904 46.428 40.19l-10.714-3.572-6.429-11.428.714-9.286 3.572-6.428z"/><path fill="#3BB77E" d="M48.09 25.868c-.755 0-1.68-.11-2.312-.816-.22-.247-.413-.48-.6-.672-1.509-1.587-4.107.617-2.532 2.678l.38.49q.372.464 1.331 1.076a6.4 6.4 0 0 0 2.087.854V32.2c0 .937.764 1.708 1.7 1.708.942 0 1.74-.771 1.74-1.708v-2.74a6.2 6.2 0 0 0 3.154-1.796q1.305-1.364 1.305-3.621 0-1.537-.595-2.568-.592-1.027-1.459-1.433a13.6 13.6 0 0 0-1.915-.711 14.4 14.4 0 0 0-1.91-.436c-.578-.083-1.062-.26-1.459-.518q-.594-.396-.594-1.03c0-2.029 2.972-1.78 4.282-.678 1.932 1.625 4.095-1.35 1.855-3.032l-.259-.231c-.176-.138-.484-.309-.93-.524a6.5 6.5 0 0 0-1.475-.49v-2.364c0-.937-.766-1.709-1.707-1.709-.935 0-1.706.771-1.706 1.709v2.336c-1.255.248-2.295.871-3.016 1.791-.727.938-1.096 1.974-1.096 3.13 0 1.164.27 2.117.81 2.872q.807 1.131 1.97 1.593 1.155.465 2.312.738c.776.188 1.431.392 1.97.629q.81.345.81.98-.002 1.77-2.141 1.77"/><path fill="#3BB77E" d="M97.069 55.952 81.206 35.634a5.59 5.59 0 0 0-4.444-2.16c-1.24 0-2.412.394-3.397 1.141l-10.38 7.913a5.5 5.5 0 0 0-2.183 4.36c-3.957-.3-8.045.002-12.015 2.583l-.178.115-10.042-1.535q.032-.523-.036-1.053a5.5 5.5 0 0 0-2.136-3.693L26.012 35.4c-2.433-1.86-5.95-1.409-7.843 1.01l-3.78 4.845a1.946 1.946 0 1 0 3.068 2.395l3.78-4.843c.573-.731 1.676-.875 2.413-.312l10.386 7.908c.352.268.576.658.633 1.097.057.44-.061.874-.332 1.222L18.47 69.043c-.569.73-1.673.872-2.408.315L5.68 61.443c-.354-.27-.58-.66-.636-1.1-.057-.437.062-.87.335-1.218l2.698-3.456a1.946 1.946 0 1 0-3.07-2.395l-2.696 3.453a5.5 5.5 0 0 0-1.13 4.113c.191 1.48.95 2.794 2.138 3.7l10.385 7.917a5.6 5.6 0 0 0 3.392 1.137c.686 0 1.37-.126 2.013-.37l1.344 1.842c-.73 1.332-.844 2.933-.257 4.478.839 2.209 2.82 3.707 4.961 3.778.067.314.159.629.284.94.864 2.14 2.836 3.596 4.954 3.692.01.056.017.111.029.167.403 1.959 1.906 3.632 3.829 4.262.49.16.983.243 1.472.258.187.789.579 1.55 1.18 2.22a5.14 5.14 0 0 0 3.81 1.709c1.091 0 2.252-.354 3.369-1.17l2.204 2.06a5.76 5.76 0 0 0 3.936 1.572c1.42 0 2.826-.539 3.9-1.613a6.6 6.6 0 0 0 1.457-2.206 5.5 5.5 0 0 0 1.594.245 5.04 5.04 0 0 0 3.63-1.55c.748-.77 1.283-1.793 1.52-2.885a6 6 0 0 0 .294.008c1.536 0 3.01-.595 4.05-1.637a5.54 5.54 0 0 0 1.47-2.609q.557.11 1.116.11.704.001 1.397-.175a5.22 5.22 0 0 0 3.783-3.83c.42-1.735-.013-3.563-1.194-5.225 3.058-2.46 4.294-3.672 5.691-5.937a5.62 5.62 0 0 0 3.343 1.088 5.55 5.55 0 0 0 3.396-1.144l10.388-7.909a5.5 5.5 0 0 0 2.134-3.692 5.5 5.5 0 0 0-1.125-4.119M26.177 79.029c-.298.27-.588.406-.86.406-.56 0-1.21-.56-1.48-1.274-.247-.648-.132-1.19.342-1.612l.006-.005.006-.005 6.559-5.83c.549-.487 1.1-.744 1.597-.744.726 0 1.27.551 1.466 1.064.211.548.084 1.037-.374 1.452l-1.144 1.03-.003.003-.016.015-.125.113zm5.301 4.653c-.295.261-.577.388-.86.388-.591 0-1.278-.555-1.565-1.265-.315-.782.06-1.142.177-1.257.077-.073.168-.16.263-.262l.002-.002.02-.017c.374-.335 3.672-3.314 5.248-4.738l.117-.106c.534-.469 1.075-.716 1.565-.716.773 0 1.349.591 1.556 1.14.207.547.083 1.025-.366 1.42l-.404.356-.009.007-.003.003zm5.803 4.202q-.04.037-.078.074l-.457.412c-.406.367-.813.467-1.28.314-.59-.194-1.106-.76-1.227-1.347-.105-.51.1-.984.618-1.44l.65-.568q.023-.022.046-.045l4.255-3.742c1.02-.901 2.03-.992 2.702-.24.094.105.896 1.058-.083 1.942l-2.613 2.359q-.042.034-.084.072-.014.015-.028.028l-2.391 2.158q-.015.01-.03.023m2.52 4.372c-.205-.228-.6-.818.049-1.442l2.607-2.352q.297-.255.565-.395l.025-.012c1.05-.562 1.62.093 1.77.306.192.275.427.815-.163 1.345l-1.786 1.606-.02.018-.775.696c-1.272 1.142-2.06.465-2.272.23m30.85-10.283c-.119.493-.47.848-.965.975-.819.21-1.855-.245-2.804-1.219a6 6 0 0 0-.22-.231l-7.35-7.264a1.947 1.947 0 0 0-2.737 2.769l7.337 7.252.037.039c.293.301.456.704.458 1.14.001.46-.173.89-.492 1.209-.315.315-.785.495-1.294.495h-.02c-.45-.005-.862-.156-1.15-.419a5 5 0 0 0-.401-.456l-5.372-5.38a1.947 1.947 0 0 0-2.756 2.752l5.095 5.101q.092.136.208.258l.217.223c.28.532.106 1.428-.429 1.979-.825.85-1.986.1-2.813-.676l-2.301-2.166a1.947 1.947 0 0 0-2.67 2.835l1.758 1.654.012.013c.04.037.101.094.104.29.008.456-.294 1.082-.733 1.521-.64.641-1.705.618-2.423-.052l-1.927-1.8.236-.212c1.91-1.716 2.218-4.378.75-6.475a5.2 5.2 0 0 0-1.749-1.58c.947-1.868.682-4.134-.846-5.842a5.4 5.4 0 0 0-3.438-1.768 5.3 5.3 0 0 0-.33-1.466 5.67 5.67 0 0 0-3.86-3.486 5.2 5.2 0 0 0-.336-2.355c-.819-2.13-2.868-3.56-5.1-3.56-1.463 0-2.909.597-4.182 1.726l-4.97 4.418-1.093-1.496 14.82-18.981 6.775 1.036-1.025.665c-5.49 3.562-5.892 7.705-4.437 10.394 1.164 2.153 3.488 3.383 5.954 3.383a7.54 7.54 0 0 0 3.127-.684l5.132-2.545 2.963 2.698.01.007.007.009 13.696 12.18c1.173 1.043 1.745 2.199 1.528 3.092m-.163-7.09L58.024 63.8l-3.938-3.586a1.95 1.95 0 0 0-2.175-.305l-6.283 3.115c-1.707.735-3.386.036-3.97-1.042-.8-1.48.4-3.503 3.133-5.276l6.117-3.969c3.316-2.156 6.795-2.322 11.555-1.77l13.78 17.658c-1.454 2.612-2.226 3.44-5.755 6.26m23.845-15.312a1.63 1.63 0 0 1-.633 1.095l-10.39 7.91a1.7 1.7 0 0 1-1.034.346 1.73 1.73 0 0 1-1.374-.658l-15.86-20.321a1.63 1.63 0 0 1-.334-1.218c.057-.44.282-.83.636-1.1l10.378-7.911a1.7 1.7 0 0 1 1.04-.346c.547 0 1.047.24 1.374.66l15.862 20.318c.273.35.392.785.335 1.225"/><path fill="#3BB77E" d="M38.266 39.739a21.1 21.1 0 0 0 9.985 2.52c11.588 0 21.015-9.437 21.015-21.037 0-8.096-4.727-15.562-12.04-19.02A20.8 20.8 0 0 0 48.25.19c-11.584 0-21.009 9.435-21.009 21.032 0 7.735 4.223 14.83 11.024 18.517m9.985-35.656c2.557 0 5.015.551 7.309 1.638 5.96 2.818 9.812 8.903 9.812 15.5 0 9.455-7.68 17.145-17.12 17.145-2.833 0-5.646-.71-8.133-2.052a17.15 17.15 0 0 1-8.983-15.092c0-9.45 7.678-17.139 17.115-17.139M10.018 49.98a1.943 1.943 0 0 0 2.736-.308l.022-.027a1.947 1.947 0 1 0-3.044-2.428l-.022.028c-.67.84-.533 2.065.308 2.735"/></g></g></g><defs><clipPath id="a"><path fill="#fff" d="M0 .19h100v100H0z"/></clipPath><clipPath id="b"><path fill="#fff" d="M0 .19h100v100H0z"/></clipPath></defs></svg>
